X: 11253
T: Balow my Boy
%R: air, minuet
B: James Oswald "The Caledonian Pocket Companion" v.1 b.1 p.25 #3
Z: 2020 John Chambers <jc:trillian.mit.edu>
M: 3/4
L: 1/16
K: G
%%slurgraces 1
%%graceslurs 1
d4 |\
B2 AG G6 {GA}B2 | {A2}G2 {F2}E2 D6 e2 | d2cB c2B2A2G2 | A2Bd e6 d2 |\
B2AG G6 {GA}B2 | {G2}E3 G D6 e2 | d2cB c2B2A2G2 | {A}B3d e4 |]
d4 |\
dc Bc d6 e2 | dc Bc d6 d2 | e2g2 g4 {ga}b4 | {g2}e3d d6 g2 |\
dB AG E6 G2 | DEG2 e6 d2 | dB AG G3A BA Bd | A3G G4 |]
